svgs/thin/lasso.svg

<svg xmlns="http://www.w3.org/2000/svg" viewBox="0 0 576 512"><!--! Font Awesome Pro 6.5.1 by @fontawesome - https://fontawesome.com License - https://fontawesome.com/license (Commercial License) Copyright 2023 Fonticons, Inc. --><path d="M576 176c0 97.2-128.9 176-288 176c-30.4 0-59.6-2.9-87.1-8.2C220.4 361.9 232 387.6 232 415c0 53.6-43.4 97-97 97H40c-4.4 0-8-3.6-8-8s3.6-8 8-8h95c44.7 0 81-36.3 81-81c0-30.7-17.3-58.7-44.8-72.4l-30.7-15.4C56.4 296.5 0 240.3 0 176C0 78.8 128.9 0 288 0S576 78.8 576 176zM288 336c150.2 0 272-71.6 272-160S438.2 16 288 16S16 87.6 16 176s121.8 160 272 160z"/></svg>

<svg xmlns="http://www.w3.org/2000/svg" viewBox="0 0 576 512"><!--! Font Awesome Pro 6.1.1 by @fontawesome - https://fontawesome.com License - https://fontawesome.com/license (Commercial License) Copyright 2022 Fonticons, Inc. --><path d="M576 176C576 273.2 447.1 352 288 352C257.6 352 228.4 349.1 200.9 343.8C220.4 361.9 232 387.6 232 415C232 468.6 188.6 512 135 512H40C35.58 512 32 508.4 32 504C32 499.6 35.58 496 40 496H135C179.7 496 216 459.7 216 415C216 384.3 198.7 356.3 171.2 342.6L140.5 327.2C56.36 296.5 0 240.3 0 176C0 78.8 128.9 0 288 0C447.1 0 576 78.8 576 176L576 176zM288 336C438.2 336 560 264.4 560 176C560 87.63 438.2 16 288 16C137.8 16 16 87.63 16 176C16 264.4 137.8 336 288 336z"/></svg>
